{"compressionlevel":-1,"type":"map","version":"1.10","tiledversion":"1.10.2","orientation":"orthogonal","renderorder":"right-down","infinite":false,"width":124,"height":23,"tilewidth":16,"tileheight":16,"nextlayerid":3,"nextobjectid":37,"tilesets":[{"columns":8,"firstgid":1,"image":"../tilesets/ti-tiles.png","imageheight":16,"imagewidth":128,"margin":0,"name":"ti-tiles","spacing":0,"tilecount":8,"tileheight":16,"tilewidth":16}],"layers":[{"id":1,"type":"tilelayer","name":"terrain","width":124,"height":23,"opacity":1,"visible":true,"x":0,"y":0,"data":[0,0,0,0,0,0,0,0,0,0,0,0,0,0,0,0,0,0,0,0,0,0,0,0,0,0,0,0,0,0,0,0,0,0,0,0,0,0,0,0,0,0,0,0,0,0,0,0,0,0,0,0,0,0,0,0,0,0,0,0,0,0,0,0,0,0,0,0,0,0,0,0,0,0,0,0,0,0,0,0,0,0,0,0,0,0,0,0,0,0,0,0,0,0,0,0,0,0,0,0,0,0,0,0,0,0,0,0,0,0,0,0,0,0,0,0,0,0,0,0,0,0,0,0,0,0,0,0,0,0,0,0,0,0,0,0,0,0,0,0,0,0,0,0,0,0,0,0,0,0,0,0,0,0,0,0,0,0,0,0,0,0,0,0,0,0,0,0,0,0,0,0,0,0,0,0,0,0,0,0,0,0,0,0,0,0,0,0,0,0,0,0,0,0,0,0,0,0,0,0,0,0,0,0,0,0,0,0,0,0,0,0,0,0,0,0,0,0,0,0,0,0,0,0,0,0,0,0,0,0,0,0,0,0,0,0,0,0,0,0,0,0,0,0,0,0,0,0,0,0,0,0,0,0,0,0,0,0,0,0,0,0,0,0,0,0,0,0,0,0,0,0,0,0,0,0,0,0,0,0,0,0,0,0,0,0,0,0,0,0,0,0,0,0,0,0,0,0,0,0,0,0,0,0,0,0,0,0,0,0,0,0,0,0,0,0,0,0,0,0,0,0,0,0,0,0,0,0,0,0,0,0,0,0,0,0,0,0,0,0,0,0,0,0,0,0,0,0,0,0,0,0,0,0,0,0,0,0,0,0,0,0,0,0,0,0,0,0,0,0,0,0,0,0,0,0,0,0,0,0,0,0,0,0,0,0,0,0,0,0,0,0,0,0,0,0,0,0,0,0,0,0,0,0,0,0,0,0,0,0,0,0,0,0,0,0,0,0,0,0,0,0,0,0,0,0,0,0,0,0,0,0,0,0,0,0,0,0,0,0,0,0,0,0,0,0,0,0,0,0,0,0,0,0,0,0,0,0,0,0,0,0,0,0,0,0,0,0,0,0,0,0,0,0,0,0,0,0,0,0,0,0,0,0,0,0,0,0,0,0,0,0,0,0,0,0,0,0,0,0,0,0,0,0,0,0,0,0,0,0,0,0,0,0,0,0,0,0,0,0,0,0,0,0,0,0,0,0,0,0,0,0,0,0,0,0,0,0,0,0,0,0,0,0,0,0,0,0,0,0,0,0,0,0,0,0,0,0,0,0,0,0,0,0,0,0,0,0,0,0,0,0,0,0,0,0,0,0,0,0,0,0,0,0,0,0,0,0,0,0,0,0,0,0,0,0,0,0,0,0,0,0,0,0,0,0,0,0,0,0,0,0,0,0,0,0,0,0,0,0,0,0,0,0,0,0,8,0,0,0,0,0,0,0,0,0,0,0,0,0,0,0,0,8,0,0,0,0,0,0,0,0,0,0,0,0,0,0,0,0,8,0,0,0,0,0,0,0,0,0,0,0,0,0,0,0,0,8,0,0,0,0,0,0,0,0,0,0,0,0,0,0,0,0,8,0,0,0,0,0,0,0,0,0,0,0,0,0,0,0,0,8,0,0,0,0,0,0,0,0,0,0,0,0,0,0,0,0,8,0,0,0,0,0,0,0,0,0,0,0,0,0,0,0,0,0,0,0,0,0,8,0,0,0,0,0,0,0,0,0,0,0,0,0,0,0,0,8,0,0,0,0,0,0,0,0,0,0,0,0,0,0,0,0,8,0,0,0,0,0,0,0,0,0,0,0,0,0,0,0,0,8,0,0,0,0,0,0,0,0,0,0,0,0,0,0,0,0,8,0,0,0,0,0,0,0,0,0,0,0,0,0,0,0,0,8,0,0,0,0,0,0,0,0,0,0,0,0,0,0,0,0,8,0,0,0,0,0,0,0,0,0,0,0,0,0,0,0,0,0,0,0,0,0,8,0,0,0,0,0,0,0,0,0,0,0,0,0,0,0,0,8,0,0,0,0,0,0,0,0,0,0,0,0,0,0,0,0,8,0,0,0,0,0,0,0,0,0,0,0,0,0,0,0,0,8,0,0,0,0,0,0,0,0,0,0,0,0,0,0,0,0,8,0,0,0,0,0,0,0,0,0,0,0,0,0,0,0,0,8,0,0,0,0,0,0,0,0,0,0,0,0,0,0,0,0,8,0,0,0,0,0,0,0,0,0,0,0,0,0,0,0,0,0,0,0,0,0,8,0,0,0,0,0,0,0,0,0,0,0,0,0,0,0,0,8,0,0,0,0,0,0,0,0,0,0,0,0,0,0,0,0,8,0,0,0,0,0,0,0,0,0,0,0,0,0,0,0,0,8,0,0,0,0,0,0,0,0,0,0,0,0,0,0,0,0,8,0,0,0,0,0,0,0,0,0,0,0,0,0,0,0,0,8,0,0,0,0,0,0,0,0,0,0,0,0,0,0,0,0,8,0,0,0,0,0,0,0,0,0,0,0,0,0,0,0,0,0,0,0,0,0,8,0,0,0,0,0,0,0,0,0,0,0,0,0,0,0,0,8,0,0,0,0,0,0,0,0,0,0,0,0,0,0,0,0,8,0,0,0,0,0,0,0,0,0,0,0,0,0,0,0,0,8,0,0,0,0,0,0,0,0,0,0,0,0,0,0,0,0,8,0,0,0,0,0,0,0,0,0,0,0,0,0,0,0,0,8,0,0,0,0,0,0,0,0,0,0,0,0,0,0,0,0,8,0,0,0,0,0,0,0,0,0,0,0,0,0,0,0,0,0,0,0,0,0,8,0,0,0,0,0,0,0,0,0,0,0,0,0,0,0,0,8,0,0,0,0,0,0,0,0,0,0,0,0,0,0,0,0,8,0,0,0,0,0,0,0,0,0,0,0,0,0,0,0,0,8,0,0,0,0,0,0,0,0,0,0,0,0,0,0,0,0,8,0,0,0,0,0,0,0,0,0,0,0,0,0,0,0,0,8,0,0,0,0,0,0,0,0,0,0,0,0,0,0,0,0,8,0,0,0,0,0,0,0,0,0,0,0,0,0,0,0,0,0,0,0,0,0,8,0,0,0,0,0,0,0,0,0,0,0,0,0,0,0,0,8,0,0,0,0,0,0,0,0,0,0,0,0,0,0,0,0,8,0,0,0,0,0,0,0,0,0,0,0,0,0,0,0,0,8,0,0,0,0,0,0,0,0,0,0,0,0,0,0,0,0,8,0,0,0,0,0,0,0,0,0,0,0,0,0,0,0,0,8,0,0,0,0,0,0,0,0,0,0,0,0,0,0,0,0,8,0,0,0,0,0,0,0,0,0,0,0,0,0,0,0,0,0,0,0,0,0,8,0,0,0,0,0,0,0,0,0,0,0,0,0,0,0,0,8,0,0,0,0,0,0,0,0,0,0,0,0,0,0,0,0,8,0,0,0,0,0,0,0,0,0,0,0,0,0,0,0,0,8,0,0,0,0,0,0,0,0,0,0,0,0,0,0,0,0,8,0,0,0,0,0,0,0,0,0,0,0,0,0,0,0,0,8,0,0,0,0,0,0,0,0,0,0,0,0,0,0,0,0,8,0,0,0,0,0,0,0,0,0,0,0,0,0,0,0,0,0,0,0,0,0,8,0,0,0,0,0,0,0,0,0,0,0,0,0,0,0,0,8,0,0,0,0,0,0,0,0,0,0,0,0,0,0,0,0,8,0,0,0,0,0,0,0,0,0,0,0,0,0,0,0,0,8,0,0,0,0,0,0,0,0,0,0,0,0,0,0,0,0,8,0,0,0,0,0,0,0,0,0,0,0,0,0,0,0,0,8,0,0,0,0,0,0,0,0,0,0,0,0,0,0,0,0,8,0,0,0,0,0,0,0,0,0,0,0,0,0,0,0,0,0,0,0,0,0,8,0,0,0,0,0,0,0,0,0,0,0,0,0,0,0,0,8,0,0,0,0,0,0,0,0,0,0,0,0,0,0,0,0,8,0,0,0,0,0,0,0,0,0,0,0,0,0,0,0,0,8,0,0,0,0,0,0,0,0,0,0,0,0,0,0,0,0,8,0,0,0,0,0,0,0,0,0,0,0,0,0,0,0,0,8,0,0,0,0,0,0,0,0,0,0,0,0,0,0,0,0,8,0,0,0,0,0,0,0,0,0,0,0,0,0,0,0,0,0,0,0,0,0,0,0,0,0,0,0,0,0,0,0,0,0,0,0,0,0,0,0,0,0,0,0,0,0,0,0,0,0,0,0,0,0,0,0,0,0,0,0,0,0,0,0,0,0,0,0,0,0,0,0,0,0,0,0,0,0,0,0,0,0,0,0,0,0,0,0,0,0,0,0,0,0,0,0,0,0,0,0,0,0,0,0,0,0,0,0,0,0,0,0,0,0,0,0,0,0,0,0,0,0,0,0,0,0,0,0,0,0,0,0,0,0,0,0,0,0,0,0,0,0,0,0,0,0,0,0,0,0,0,0,0,0,0,0,0,0,0,0,0,0,0,0,0,0,0,0,0,0,0,0,0,0,0,0,0,0,0,0,0,0,0,0,0,0,0,0,0,0,0,0,0,0,0,0,0,0,0,0,0,0,0,0,0,0,0,0,0,0,0,0,0,0,0,0,0,0,0,0,0,0,0,0,0,0,0,0,0,0,0,0,0,0,0,0,0,0,0,0,0,0,0,0,0,0,0,0,0,0,0,0,0,0,0,0,0,0,0,0,0,0,0,0,0,0,0,0,0,0,0,0,0,0,0,0,0,0,0,0,0,0,0,0,0,0,0,0,0,0,0,0,0,0,3,3,3,3,3,0,0,0,0,0,0,0,0,0,0,0,0,0,0,0,0,0,0,0,3,3,3,3,3,3,3,0,0,0,0,0,0,0,0,0,0,0,0,0,0,0,0,0,0,0,0,0,0,0,0,0,0,0,0,0,0,0,0,0,0,0,0,0,0,0,0,0,0,0,0,0,0,0,0,0,0,0,0,0,0,0,0,0,0,0,0,0,0,0,0,0,0,0,0,0,0,0,0,0,0,0,0,0,0,0,0,0,0,0,0,0,0,0,0,0,0,0,0,0,0,0,0,0,0,0,0,0,0,0,0,0,0,0,0,0,0,0,0,0,0,0,0,0,0,0,0,0,0,0,0,0,0,0,0,0,0,0,0,0,0,0,0,0,0,0,0,0,0,0,0,0,0,0,0,0,0,0,0,0,0,0,0,0,0,0,0,0,0,0,0,0,0,0,0,0,0,0,0,0,0,0,0,0,0,0,0,0,0,0,0,0,0,0,0,0,0,0,0,0,0,0,0,0,0,0,0,0,0,0,0,0,0,0,0,0,0,0,0,0,0,0,0,0,0,0,0,0,0,0,0,0,0,0,0,0,0,0,0,0,0,0,0,0,0,0,0,0,0,0,0,0,0,0,0,0,0,0,0,0,0,0,0,0,0,0,0,0,0,0,0,0,0,0,0,0,0,0,0,0,0,0,0,0,0,0,0,0,0,0,0,0,0,0,0,0,0,0,0,0,0,0,0,0,0,0,0,0,0,0,0,0,0,0,0,0,0,0,2,2,2,2,2,2,2,2,2,2,2,2,2,2,2,2,2,2,2,2,2,2,2,2,2,2,2,2,2,2,2,2,2,2,2,2,2,2,2,2,2,2,2,2,2,2,2,2,2,2,2,2,2,2,2,2,2,2,2,2,2,2,2,2,2,2,2,2,2,2,2,2,2,2,2,2,2,2,2,2,2,2,2,2,2,2,2,2,2,2,0,0,0,2,2,2,2,2,2,2,2,2,2,2,2,2,2,2,2,2,2,2,2,2,2,2,2,2,2,2,2,2,2,2,1,1,1,1,1,1,1,1,1,1,1,1,1,1,1,1,1,1,1,1,1,1,1,1,1,1,1,1,1,1,1,1,1,1,1,1,1,1,1,1,1,1,1,1,1,1,1,1,1,1,1,1,1,1,1,1,1,1,1,1,1,1,1,1,1,1,1,1,1,1,1,1,1,1,1,1,1,1,1,1,1,1,1,1,1,1,1,1,1,1,0,0,0,1,1,1,1,1,1,1,1,1,1,1,1,1,1,1,1,1,1,1,1,1,1,1,1,1,1,1,1,1,1,1,1,1,1,1,1,1,1,1,1,1,1,1,1,1,1,1,1,1,1,1,1,1,1,1,1,1,1,1,1,1,1,1,1,1,1,1,1,1,1,1,1,1,1,1,1,1,1,1,1,1,1,1,1,1,1,1,1,1,1,1,1,1,1,1,1,1,1,1,1,1,1,1,1,1,1,1,1,1,1,1,1,1,1,1,1,1,1,1,1,1,0,0,0,1,1,1,1,1,1,1,1,1,1,1,1,1,1,1,1,1,1,1,1,1,1,1,1,1,1,1,1,1,1,1]},{"id":2,"type":"objectgroup","name":"objects","draworder":"topdown","opacity":1,"visible":true,"x":0,"y":0,"objects":[{"id":1,"name":"","type":"info-sign","class":"info-sign","x":80,"y":256,"width":48,"height":64,"rotation":0,"visible":true,"point":false,"properties":[{"name":"textDe","type":"string","value":"Vor dir liegt eine Gesundheitskarte. Nimm sie mit!"},{"name":"textEn","type":"string","value":"There is a health card ahead. Pick it up!"}]},{"id":2,"name":"","type":"karte","class":"karte","x":160,"y":291.2,"width":19.2,"height":12.8,"rotation":0,"visible":true,"point":false,"properties":[{"name":"karte","type":"string","value":"egk"},{"name":"hint","type":"string","value":{"de":"eGK gefunden — sie weist dich aus. Gespeichert ist auf ihr nichts.","en":"Found the eGK — it identifies you. It stores nothing."}}]},{"id":3,"name":"","type":"kartenleser","class":"kartenleser","x":256,"y":270.4,"width":48,"height":48,"rotation":0,"visible":true,"point":false,"properties":[{"name":"karten","type":"string","value":["egk"]},{"name":"gate","type":"string","value":"tor-anmeldung"},{"name":"hint","type":"string","value":{"de":"Karte stecken: TI-Aktion drücken.","en":"Insert your card: press the TI action."}}]},{"id":4,"name":"tor-anmeldung","type":"gate","class":"gate","x":320,"y":224,"width":8,"height":96,"rotation":0,"visible":true,"point":false,"properties":[]},{"id":5,"name":"","type":"lauscher","class":"lauscher","x":448,"y":288,"width":16,"height":16,"rotation":0,"visible":true,"point":false,"properties":[{"name":"patrol","type":"float","value":40},{"name":"speed","type":"float","value":28},{"name":"reach","type":"float","value":96},{"name":"spread","type":"float","value":20}]},{"id":6,"name":"","type":"lauscher","class":"lauscher","x":640,"y":288,"width":16,"height":16,"rotation":0,"visible":true,"point":false,"properties":[{"name":"patrol","type":"float","value":-30},{"name":"speed","type":"float","value":24},{"name":"reach","type":"float","value":88},{"name":"spread","type":"float","value":18}]},{"id":7,"name":"","type":"info-sign","class":"info-sign","x":800,"y":256,"width":48,"height":64,"rotation":0,"visible":true,"point":false,"properties":[{"name":"textDe","type":"string","value":"Noch ein Terminal — oben. Probier deine Karte ruhig aus."},{"name":"textEn","type":"string","value":"Another terminal — up there. Go ahead and try your card."}]},{"id":8,"name":"","type":"kartenleser","class":"kartenleser","x":896,"y":222.4,"width":48,"height":48,"rotation":0,"visible":true,"point":false,"properties":[{"name":"karten","type":"string","value":["smcb"]},{"name":"hint","type":"string","value":{"de":"Dieses Terminal will den Praxisausweis sehen.","en":"This terminal wants to see the practice card."}},{"name":"falsche-karteHint","type":"string","value":{"de":"ZUGRIFF VERWEIGERT — die eGK weist DICH aus, nicht die Praxis. Hier braucht es die SMC-B.","en":"ACCESS DENIED — the eGK identifies YOU, not the practice. This needs the SMC-B."}}]},{"id":9,"name":"","type":"karte","class":"karte","x":1024,"y":291.2,"width":19.2,"height":12.8,"rotation":0,"visible":true,"point":false,"properties":[{"name":"karte","type":"string","value":"smcb"},{"name":"hint","type":"string","value":{"de":"SMC-B — der Ausweis der Einrichtung. Eine zweite Rolle, eine zweite Karte.","en":"SMC-B — the institution’s card. A second role needs a second card."}}]},{"id":10,"name":"","type":"lauscher","class":"lauscher","x":1152,"y":288,"width":16,"height":16,"rotation":0,"visible":true,"point":false,"properties":[{"name":"patrol","type":"float","value":26},{"name":"speed","type":"float","value":30},{"name":"reach","type":"float","value":92},{"name":"spread","type":"float","value":18}]},{"id":11,"name":"","type":"kartenleser","class":"kartenleser","x":1280,"y":270.4,"width":48,"height":48,"rotation":0,"visible":true,"point":false,"properties":[{"name":"karten","type":"string","value":["smcb"]},{"name":"gate","type":"string","value":"tor-zugang"},{"name":"gateHint","type":"string","value":{"de":"Dieses Tor prüft die Einrichtung — steck die SMC-B am Terminal links.","en":"This gate checks the institution — insert the SMC-B at the terminal on the left."}}]},{"id":12,"name":"tor-zugang","type":"gate","class":"gate","x":1376,"y":224,"width":8,"height":96,"rotation":0,"visible":true,"point":false,"properties":[]},{"id":13,"name":"","type":"andock-plattform","class":"andock-plattform","x":1440,"y":297.6,"width":48,"height":6.4,"rotation":0,"visible":true,"point":false,"properties":[]},{"id":14,"name":"","type":"lauscher","class":"lauscher","x":1568,"y":288,"width":16,"height":16,"rotation":0,"visible":true,"point":false,"properties":[{"name":"patrol","type":"float","value":26},{"name":"speed","type":"float","value":32},{"name":"reach","type":"float","value":92},{"name":"spread","type":"float","value":18}]},{"id":15,"name":"","type":"info-sign","class":"info-sign","x":1824,"y":256,"width":48,"height":64,"rotation":0,"visible":true,"point":false,"properties":[{"name":"textDe","type":"string","value":"Die Karte war der Schlüssel — der Inhalt lag nie auf ihr."},{"name":"textEn","type":"string","value":"The card was the key — the content was never on it."}]},{"id":16,"name":"","type":"collectible","class":"collectible","x":498,"y":258,"width":12,"height":12,"rotation":0,"visible":true,"point":false,"properties":[]},{"id":17,"name":"","type":"collectible","class":"collectible","x":530,"y":258,"width":12,"height":12,"rotation":0,"visible":true,"point":false,"properties":[]},{"id":18,"name":"","type":"collectible","class":"collectible","x":898,"y":258,"width":12,"height":12,"rotation":0,"visible":true,"point":false,"properties":[]},{"id":19,"name":"","type":"spawn","class":"spawn","x":64,"y":304,"width":16,"height":16,"rotation":0,"visible":true,"point":false,"properties":[]},{"id":20,"name":"","type":"collectible","class":"collectible","x":130,"y":306,"width":12,"height":12,"rotation":0,"visible":true,"point":false,"properties":[]},{"id":21,"name":"","type":"collectible","class":"collectible","x":194,"y":306,"width":12,"height":12,"rotation":0,"visible":true,"point":false,"properties":[]},{"id":22,"name":"","type":"checkpoint","class":"checkpoint","x":352,"y":296,"width":16,"height":24,"rotation":0,"visible":true,"point":false,"properties":[]},{"id":23,"name":"","type":"collectible","class":"collectible","x":418,"y":306,"width":12,"height":12,"rotation":0,"visible":true,"point":false,"properties":[]},{"id":24,"name":"","type":"collectible","class":"collectible","x":642,"y":306,"width":12,"height":12,"rotation":0,"visible":true,"point":false,"properties":[]},{"id":25,"name":"","type":"collectible","class":"collectible","x":706,"y":306,"width":12,"height":12,"rotation":0,"visible":true,"point":false,"properties":[]},{"id":26,"name":"","type":"checkpoint","class":"checkpoint","x":768,"y":296,"width":16,"height":24,"rotation":0,"visible":true,"point":false,"properties":[]},{"id":27,"name":"","type":"collectible","class":"collectible","x":1058,"y":306,"width":12,"height":12,"rotation":0,"visible":true,"point":false,"properties":[]},{"id":28,"name":"","type":"collectible","class":"collectible","x":1122,"y":306,"width":12,"height":12,"rotation":0,"visible":true,"point":false,"properties":[]},{"id":29,"name":"","type":"checkpoint","class":"checkpoint","x":1248,"y":296,"width":16,"height":24,"rotation":0,"visible":true,"point":false,"properties":[]},{"id":30,"name":"","type":"collectible","class":"collectible","x":1314,"y":306,"width":12,"height":12,"rotation":0,"visible":true,"point":false,"properties":[]},{"id":31,"name":"","type":"checkpoint","class":"checkpoint","x":1536,"y":296,"width":16,"height":24,"rotation":0,"visible":true,"point":false,"properties":[]},{"id":32,"name":"","type":"collectible","class":"collectible","x":1602,"y":306,"width":12,"height":12,"rotation":0,"visible":true,"point":false,"properties":[]},{"id":33,"name":"","type":"collectible","class":"collectible","x":1666,"y":306,"width":12,"height":12,"rotation":0,"visible":true,"point":false,"properties":[]},{"id":34,"name":"","type":"collectible","class":"collectible","x":1730,"y":306,"width":12,"height":12,"rotation":0,"visible":true,"point":false,"properties":[]},{"id":35,"name":"","type":"collectible","class":"collectible","x":1794,"y":306,"width":12,"height":12,"rotation":0,"visible":true,"point":false,"properties":[]},{"id":36,"name":"","type":"door-exit","class":"door-exit","x":1884,"y":288,"width":24,"height":48,"rotation":0,"visible":true,"point":false,"properties":[]}]}]}