{"compressionlevel":-1,"type":"map","version":"1.10","tiledversion":"1.10.2","orientation":"orthogonal","renderorder":"right-down","infinite":false,"width":116,"height":23,"tilewidth":16,"tileheight":16,"nextlayerid":3,"nextobjectid":30,"tilesets":[{"columns":8,"firstgid":1,"image":"../tilesets/ti-tiles.png","imageheight":16,"imagewidth":128,"margin":0,"name":"ti-tiles","spacing":0,"tilecount":8,"tileheight":16,"tilewidth":16}],"layers":[{"id":1,"type":"tilelayer","name":"terrain","width":116,"height":23,"opacity":1,"visible":true,"x":0,"y":0,"data":[0,0,0,0,0,0,0,0,0,0,0,0,0,0,0,0,0,0,0,0,0,0,0,0,0,0,0,0,0,0,0,0,0,0,0,0,0,0,0,0,0,0,0,0,0,0,0,0,0,0,0,0,0,0,0,0,0,0,0,0,0,0,0,0,0,0,0,0,0,0,0,0,0,0,0,0,0,0,0,0,0,0,0,0,0,0,0,0,0,0,0,0,0,0,0,0,0,0,0,0,0,0,0,0,0,0,0,0,0,0,0,0,0,0,0,0,0,0,0,0,0,0,0,0,0,0,0,0,0,0,0,0,0,0,0,0,0,0,0,0,0,0,0,0,0,0,0,0,0,0,0,0,0,0,0,0,0,0,0,0,0,0,0,0,0,0,0,0,0,0,0,0,0,0,0,0,0,0,0,0,0,0,0,0,0,0,0,0,0,0,0,0,0,0,0,0,0,0,0,0,0,0,0,0,0,0,0,0,0,0,0,0,0,0,0,0,0,0,0,0,0,0,0,0,0,0,0,0,0,0,0,0,0,0,0,0,0,0,0,0,0,0,0,0,0,0,0,0,0,0,0,0,0,0,0,0,0,0,0,0,0,0,0,0,0,0,0,0,0,0,0,0,0,0,0,0,0,0,0,0,0,0,0,0,0,0,0,0,0,0,0,0,0,0,0,0,0,0,0,0,0,0,0,0,0,0,0,0,0,0,0,0,0,0,0,0,0,0,0,0,0,0,0,0,0,0,0,0,0,0,0,0,0,0,0,0,0,0,0,0,0,0,0,0,0,0,0,0,0,0,0,0,0,0,0,0,0,0,0,0,0,0,0,0,0,0,0,0,0,0,0,0,0,0,0,0,0,0,0,0,0,0,0,0,0,0,0,0,0,0,0,0,0,0,0,0,0,0,0,0,0,0,0,0,0,0,0,0,0,0,0,0,0,0,0,0,0,0,0,0,0,0,0,0,0,0,0,0,0,0,0,0,0,0,0,0,0,0,0,0,0,0,0,0,0,0,0,0,0,0,0,0,0,0,0,0,0,0,0,0,0,0,0,0,0,0,0,0,0,0,0,0,0,0,0,0,0,0,0,0,0,0,0,0,0,0,0,0,0,0,0,0,0,0,0,0,0,0,0,0,0,0,0,0,0,0,0,0,0,0,0,0,0,0,0,0,0,0,0,0,0,0,0,0,0,0,0,0,0,0,0,0,0,0,0,0,0,0,0,0,0,0,0,0,0,0,0,0,0,0,0,0,0,0,0,0,0,0,0,0,0,0,0,0,0,0,0,0,0,0,0,0,0,0,0,0,0,0,0,0,0,0,0,0,0,0,8,0,0,0,0,0,0,0,0,0,0,0,0,0,0,0,0,8,0,0,0,0,0,0,0,0,0,0,0,0,0,0,0,0,8,0,0,0,0,0,0,0,0,0,0,0,0,0,0,0,0,8,0,0,0,0,0,0,0,0,0,0,0,0,0,0,0,0,8,0,0,0,0,0,0,0,0,0,0,0,0,0,0,0,0,8,0,0,0,0,0,0,0,0,0,0,0,0,0,0,0,0,8,0,0,0,0,0,0,0,0,0,0,0,0,0,8,0,0,0,0,0,0,0,0,0,0,0,0,0,0,0,0,8,0,0,0,0,0,0,0,0,0,0,0,0,0,0,0,0,8,0,0,0,0,0,0,0,0,0,0,0,0,0,0,0,0,8,0,0,0,0,0,0,0,0,0,0,0,0,0,0,0,0,8,0,0,0,0,0,0,0,0,0,0,0,0,0,0,0,0,8,0,0,0,0,0,0,0,0,0,0,0,0,0,0,0,0,8,0,0,0,0,0,0,0,0,0,0,0,0,0,8,0,0,0,0,0,0,0,0,0,0,0,0,0,0,0,0,8,0,0,0,0,0,0,0,0,0,0,0,0,0,0,0,0,8,0,0,0,0,0,0,0,0,0,0,0,0,0,0,0,0,8,0,0,0,0,0,0,0,0,0,0,0,0,0,0,0,0,8,0,0,0,0,0,0,0,0,0,0,0,0,0,0,0,0,8,0,0,0,0,0,0,0,0,0,0,0,0,0,0,0,0,8,0,0,0,0,0,0,0,0,0,0,0,0,0,8,0,0,0,0,0,0,0,0,0,0,0,0,0,0,0,0,8,0,0,0,0,0,0,0,0,0,0,0,0,0,0,0,0,8,0,0,0,0,0,0,0,0,0,0,0,0,0,0,0,0,8,0,0,0,0,0,0,0,0,0,0,0,0,0,0,0,0,8,0,0,0,0,0,0,0,0,0,0,0,0,0,0,0,0,8,0,0,0,0,0,0,0,0,0,0,0,0,0,0,0,0,8,0,0,0,0,0,0,0,0,0,0,0,0,0,8,0,0,0,0,0,0,0,0,0,0,0,0,0,0,0,0,8,0,0,0,0,0,0,0,0,0,0,0,0,0,0,0,0,8,0,0,0,0,0,0,0,0,0,0,0,0,0,0,0,0,8,0,0,0,0,0,0,0,0,0,0,0,0,0,0,0,0,8,0,0,0,0,0,0,0,0,0,0,0,0,0,0,0,0,8,0,0,0,0,0,0,0,0,0,0,0,0,0,0,0,0,8,0,0,0,0,0,0,0,0,0,0,0,0,0,8,0,0,0,0,0,0,0,0,0,0,0,0,0,0,0,0,8,0,0,0,0,0,0,0,0,0,0,0,0,0,0,0,0,8,0,0,0,0,0,0,0,0,0,0,0,0,0,0,0,0,8,0,0,0,0,0,0,0,0,0,0,0,0,0,0,0,0,8,0,0,0,0,0,0,0,0,0,0,0,0,0,0,0,0,8,0,0,0,0,0,0,0,0,0,0,0,0,0,0,0,0,8,0,0,0,0,0,0,0,0,0,0,0,0,0,8,0,0,0,0,0,0,0,0,0,0,0,0,0,0,0,0,8,0,0,0,0,0,0,0,0,0,0,0,0,0,0,0,0,8,0,0,0,0,0,0,0,0,0,0,0,0,0,0,0,0,8,0,0,0,0,0,0,0,0,0,0,0,0,0,0,0,0,8,0,0,0,0,0,0,0,0,0,0,0,0,0,0,0,0,8,0,0,0,0,0,0,0,0,0,0,0,0,0,0,0,0,8,0,0,0,0,0,0,0,0,0,0,0,0,0,8,0,0,0,0,0,0,0,0,0,0,0,0,0,0,0,0,8,0,0,0,0,0,0,0,0,0,0,0,0,0,0,0,0,8,0,0,0,0,0,0,0,0,0,0,0,0,0,0,0,0,8,0,0,0,0,0,0,0,0,0,0,0,0,0,0,0,0,8,0,0,0,0,0,0,0,0,0,0,0,0,0,0,0,0,8,0,0,0,0,0,0,0,0,0,0,0,0,0,0,0,0,8,0,0,0,0,0,0,0,0,0,0,0,0,0,8,0,0,0,0,0,0,0,0,0,0,0,0,0,0,0,0,8,0,0,0,0,0,0,0,0,0,0,0,0,0,0,0,0,8,0,0,0,0,0,0,0,0,0,0,0,0,0,0,0,0,8,0,0,0,0,0,0,0,0,0,0,0,0,0,0,0,0,8,0,0,0,0,0,0,0,0,0,0,0,0,0,0,0,0,8,0,0,0,0,0,0,0,0,0,0,0,0,0,0,0,0,8,0,0,0,0,0,0,0,0,0,0,0,0,0,8,0,0,0,0,0,0,0,0,0,0,0,0,0,0,0,0,8,0,0,0,0,0,0,0,0,0,0,0,0,0,0,0,0,8,0,0,0,0,0,0,0,0,0,0,0,0,0,0,0,0,8,0,0,0,0,0,0,0,0,0,0,0,0,0,0,0,0,8,0,0,0,0,0,0,0,0,0,0,0,0,0,0,0,0,8,0,0,0,0,0,0,0,0,0,0,0,0,0,0,0,0,8,0,0,0,0,0,0,0,0,0,0,0,0,0,0,0,0,0,0,0,0,0,0,0,0,0,0,0,0,0,0,0,0,0,0,0,0,0,0,0,0,0,0,0,0,0,0,0,0,0,0,0,0,0,0,0,0,0,0,0,0,0,0,0,0,0,0,0,0,0,0,0,0,0,0,0,0,0,0,0,0,0,0,0,0,0,0,0,0,0,0,0,0,0,0,0,0,0,0,0,0,0,0,0,0,0,0,0,0,0,0,0,0,0,0,0,0,0,0,0,0,0,0,0,0,0,0,0,0,0,0,0,0,0,0,0,0,0,0,0,0,0,0,0,0,0,0,0,0,0,0,0,0,0,0,0,0,0,0,0,0,0,0,0,0,0,0,0,0,0,0,0,0,0,0,0,0,0,0,0,0,0,0,0,0,0,0,0,0,0,0,0,0,0,0,0,0,0,0,0,0,0,0,0,0,0,0,0,0,0,0,0,0,0,0,0,0,0,0,0,0,0,0,0,0,0,0,0,0,0,0,0,0,0,0,0,0,0,0,0,0,0,0,0,0,0,0,0,0,0,0,0,0,0,0,0,0,0,0,0,0,0,0,0,0,0,0,0,0,0,3,3,3,3,3,3,0,0,0,0,0,0,0,0,0,0,0,0,0,0,0,0,0,0,0,0,0,0,0,0,0,0,0,0,0,0,0,0,0,0,0,0,0,0,0,0,0,0,0,0,0,0,3,3,3,3,3,3,0,0,0,0,0,0,0,0,0,0,0,0,0,0,0,0,0,0,0,0,0,0,0,0,0,0,0,0,0,0,0,0,0,0,0,0,0,0,0,0,0,0,0,0,0,0,0,0,0,0,0,0,0,0,0,0,0,0,0,0,0,0,0,0,0,0,0,0,0,0,0,0,0,0,0,0,0,0,0,0,0,0,0,0,0,0,0,0,0,0,0,0,0,0,0,0,0,0,0,0,0,0,0,0,0,0,0,0,0,0,0,0,0,0,0,0,0,0,0,0,0,0,0,0,0,0,0,0,0,0,0,0,0,0,0,0,0,0,0,0,0,0,0,0,0,0,0,0,0,0,0,0,0,0,0,0,0,0,0,0,0,0,0,0,0,0,0,0,0,0,0,0,0,0,0,0,0,0,0,0,0,0,0,0,0,0,0,0,0,0,0,0,0,0,0,0,0,0,0,0,0,0,0,0,0,0,0,0,0,0,0,0,0,0,0,0,0,0,0,0,0,0,0,0,0,0,0,0,0,0,0,0,0,0,0,0,0,0,0,0,0,0,0,0,0,0,0,0,0,0,0,0,0,0,0,0,0,0,0,0,2,2,2,2,2,2,2,2,2,2,2,2,2,2,2,2,2,2,2,2,2,2,2,2,2,2,2,2,2,2,2,2,2,2,2,2,2,2,2,2,2,2,2,2,2,2,2,2,2,2,2,2,2,2,2,2,2,2,2,2,0,0,0,2,2,2,2,2,2,2,2,2,2,2,2,2,2,2,2,2,2,2,2,2,2,2,2,2,2,2,2,2,2,2,2,2,2,2,2,2,2,2,2,2,2,2,2,2,2,2,2,2,2,2,2,2,1,1,1,1,1,1,1,1,1,1,1,1,1,1,1,1,1,1,1,1,1,1,1,1,1,1,1,1,1,1,1,1,1,1,1,1,1,1,1,1,1,1,1,1,1,1,1,1,1,1,1,1,1,1,1,1,1,1,1,1,0,0,0,1,1,1,1,1,1,1,1,1,1,1,1,1,1,1,1,1,1,1,1,1,1,1,1,1,1,1,1,1,1,1,1,1,1,1,1,1,1,1,1,1,1,1,1,1,1,1,1,1,1,1,1,1,1,1,1,1,1,1,1,1,1,1,1,1,1,1,1,1,1,1,1,1,1,1,1,1,1,1,1,1,1,1,1,1,1,1,1,1,1,1,1,1,1,1,1,1,1,1,1,1,1,1,1,1,1,1,1,1,1,1,1,1,0,0,0,1,1,1,1,1,1,1,1,1,1,1,1,1,1,1,1,1,1,1,1,1,1,1,1,1,1,1,1,1,1,1,1,1,1,1,1,1,1,1,1,1,1,1,1,1,1,1,1,1,1,1,1,1]},{"id":2,"type":"objectgroup","name":"objects","draworder":"topdown","opacity":1,"visible":true,"x":0,"y":0,"objects":[{"id":1,"name":"","type":"info-sign","class":"info-sign","x":96,"y":256,"width":48,"height":64,"rotation":0,"visible":true,"point":false,"properties":[{"name":"textDe","type":"string","value":"Hier zählt die Einrichtung, nicht die Person. Zwei Karten liegen bereit."},{"name":"textEn","type":"string","value":"Here the institution counts, not the person. Two cards are waiting."}]},{"id":2,"name":"","type":"karte","class":"karte","x":256,"y":291.2,"width":19.2,"height":12.8,"rotation":0,"visible":true,"point":false,"properties":[{"name":"karte","type":"string","value":"egk"}]},{"id":3,"name":"","type":"karte","class":"karte","x":448,"y":291.2,"width":19.2,"height":12.8,"rotation":0,"visible":true,"point":false,"properties":[{"name":"karte","type":"string","value":"smcb"}]},{"id":4,"name":"","type":"kartenleser","class":"kartenleser","x":608,"y":270.4,"width":48,"height":48,"rotation":0,"visible":true,"point":false,"properties":[{"name":"karten","type":"string","value":["smcb"]},{"name":"gate","type":"string","value":"tor-einrichtung"},{"name":"gateHint","type":"string","value":{"de":"Dieses Tor prüft die EINRICHTUNG — die SMC-B, nicht die eGK.","en":"This gate checks the INSTITUTION — the SMC-B, not the eGK."}}]},{"id":5,"name":"tor-einrichtung","type":"gate","class":"gate","x":800,"y":224,"width":8,"height":96,"rotation":0,"visible":true,"point":false,"properties":[]},{"id":6,"name":"","type":"andock-plattform","class":"andock-plattform","x":960,"y":297.6,"width":48,"height":6.4,"rotation":0,"visible":true,"point":false,"properties":[]},{"id":7,"name":"","type":"lauscher","class":"lauscher","x":1056,"y":288,"width":16,"height":16,"rotation":0,"visible":true,"point":false,"properties":[{"name":"patrol","type":"float","value":40},{"name":"speed","type":"float","value":26},{"name":"reach","type":"float","value":92},{"name":"spread","type":"float","value":20}]},{"id":8,"name":"","type":"kartenleser","class":"kartenleser","x":1216,"y":270.4,"width":48,"height":48,"rotation":0,"visible":true,"point":false,"properties":[{"name":"karten","type":"string","value":["egk"]},{"name":"gate","type":"string","value":"tor-versicherte"},{"name":"gateHint","type":"string","value":{"de":"Und dieses will die VERSICHERTE sehen — jetzt die eGK.","en":"And this one wants to see the INSURED person — now the eGK."}}]},{"id":9,"name":"tor-versicherte","type":"gate","class":"gate","x":1472,"y":224,"width":8,"height":96,"rotation":0,"visible":true,"point":false,"properties":[]},{"id":10,"name":"","type":"info-sign","class":"info-sign","x":1728,"y":256,"width":48,"height":64,"rotation":0,"visible":true,"point":false,"properties":[{"name":"textDe","type":"string","value":"Jede Tür ihre Karte. Deshalb gibt es mehr als eine."},{"name":"textEn","type":"string","value":"Every door its own card. That is why there is more than one."}]},{"id":11,"name":"","type":"collectible","class":"collectible","x":514,"y":258,"width":12,"height":12,"rotation":0,"visible":true,"point":false,"properties":[]},{"id":12,"name":"","type":"collectible","class":"collectible","x":1346,"y":258,"width":12,"height":12,"rotation":0,"visible":true,"point":false,"properties":[]},{"id":13,"name":"","type":"spawn","class":"spawn","x":64,"y":304,"width":16,"height":16,"rotation":0,"visible":true,"point":false,"properties":[]},{"id":14,"name":"","type":"collectible","class":"collectible","x":146,"y":306,"width":12,"height":12,"rotation":0,"visible":true,"point":false,"properties":[]},{"id":15,"name":"","type":"collectible","class":"collectible","x":210,"y":306,"width":12,"height":12,"rotation":0,"visible":true,"point":false,"properties":[]},{"id":16,"name":"","type":"checkpoint","class":"checkpoint","x":320,"y":296,"width":16,"height":24,"rotation":0,"visible":true,"point":false,"properties":[]},{"id":17,"name":"","type":"collectible","class":"collectible","x":386,"y":306,"width":12,"height":12,"rotation":0,"visible":true,"point":false,"properties":[]},{"id":18,"name":"","type":"collectible","class":"collectible","x":706,"y":306,"width":12,"height":12,"rotation":0,"visible":true,"point":false,"properties":[]},{"id":19,"name":"","type":"collectible","class":"collectible","x":770,"y":306,"width":12,"height":12,"rotation":0,"visible":true,"point":false,"properties":[]},{"id":20,"name":"","type":"collectible","class":"collectible","x":834,"y":306,"width":12,"height":12,"rotation":0,"visible":true,"point":false,"properties":[]},{"id":21,"name":"","type":"checkpoint","class":"checkpoint","x":896,"y":296,"width":16,"height":24,"rotation":0,"visible":true,"point":false,"properties":[]},{"id":22,"name":"","type":"collectible","class":"collectible","x":1122,"y":306,"width":12,"height":12,"rotation":0,"visible":true,"point":false,"properties":[]},{"id":23,"name":"","type":"collectible","class":"collectible","x":1186,"y":306,"width":12,"height":12,"rotation":0,"visible":true,"point":false,"properties":[]},{"id":24,"name":"","type":"checkpoint","class":"checkpoint","x":1440,"y":296,"width":16,"height":24,"rotation":0,"visible":true,"point":false,"properties":[]},{"id":25,"name":"","type":"collectible","class":"collectible","x":1506,"y":306,"width":12,"height":12,"rotation":0,"visible":true,"point":false,"properties":[]},{"id":26,"name":"","type":"collectible","class":"collectible","x":1570,"y":306,"width":12,"height":12,"rotation":0,"visible":true,"point":false,"properties":[]},{"id":27,"name":"","type":"collectible","class":"collectible","x":1634,"y":306,"width":12,"height":12,"rotation":0,"visible":true,"point":false,"properties":[]},{"id":28,"name":"","type":"collectible","class":"collectible","x":1698,"y":306,"width":12,"height":12,"rotation":0,"visible":true,"point":false,"properties":[]},{"id":29,"name":"","type":"door-exit","class":"door-exit","x":1756,"y":288,"width":24,"height":48,"rotation":0,"visible":true,"point":false,"properties":[]}]}]}