{"compressionlevel":-1,"type":"map","version":"1.10","tiledversion":"1.10.2","orientation":"orthogonal","renderorder":"right-down","infinite":false,"width":124,"height":23,"tilewidth":16,"tileheight":16,"nextlayerid":3,"nextobjectid":33,"tilesets":[{"columns":8,"firstgid":1,"image":"../tilesets/ti-tiles.png","imageheight":16,"imagewidth":128,"margin":0,"name":"ti-tiles","spacing":0,"tilecount":8,"tileheight":16,"tilewidth":16}],"layers":[{"id":1,"type":"tilelayer","name":"terrain","width":124,"height":23,"opacity":1,"visible":true,"x":0,"y":0,"data":[0,0,0,0,0,0,0,0,0,0,0,0,0,0,0,0,0,0,0,0,0,0,0,0,0,0,0,0,0,0,0,0,0,0,0,0,0,0,0,0,0,0,0,0,0,0,0,0,0,0,0,0,0,0,0,0,0,0,0,0,0,0,0,0,0,0,0,0,0,0,0,0,0,0,0,0,0,0,0,0,0,0,0,0,0,0,0,0,0,0,0,0,0,0,0,0,0,0,0,0,0,0,0,0,0,0,0,0,0,0,0,0,0,0,0,0,0,0,0,0,0,0,0,0,0,0,0,0,0,0,0,0,0,0,0,0,0,0,0,0,0,0,0,0,0,0,0,0,0,0,0,0,0,0,0,0,0,0,0,0,0,0,0,0,0,0,0,0,0,0,0,0,0,0,0,0,0,0,0,0,0,0,0,0,0,0,0,0,0,0,0,0,0,0,0,0,0,0,0,0,0,0,0,0,0,0,0,0,0,0,0,0,0,0,0,0,0,0,0,0,0,0,0,0,0,0,0,0,0,0,0,0,0,0,0,0,0,0,0,0,0,0,0,0,0,0,0,0,0,0,0,0,0,0,0,0,0,0,0,0,0,0,0,0,0,0,0,0,0,0,0,0,0,0,0,0,0,0,0,0,0,0,0,0,0,0,0,0,0,0,0,0,0,0,0,0,0,0,0,0,0,0,0,0,0,0,0,0,0,0,0,0,0,0,0,0,0,0,0,0,0,0,0,0,0,0,0,0,0,0,0,0,0,0,0,0,0,0,0,0,0,0,0,0,0,0,0,0,0,0,0,0,0,0,0,0,0,0,0,0,0,0,0,0,0,0,0,0,0,0,0,0,0,0,0,0,0,0,0,0,0,0,0,0,0,0,0,0,0,0,0,0,0,0,0,0,0,0,0,0,0,0,0,0,0,0,0,0,0,0,0,0,0,0,0,0,0,0,0,0,0,0,0,0,0,0,0,0,0,0,0,0,0,0,0,0,0,0,0,0,0,0,0,0,0,0,0,0,0,0,0,0,0,0,0,0,0,0,0,0,0,0,0,0,0,0,0,0,0,0,0,0,0,0,0,0,0,0,0,0,0,0,0,0,0,0,0,0,0,0,0,0,0,0,0,0,0,0,0,0,0,0,0,0,0,0,0,0,0,0,0,0,0,0,0,0,0,0,0,0,0,0,0,0,0,0,0,0,0,0,0,0,0,0,0,0,0,0,0,0,0,0,0,0,0,0,0,0,0,0,0,0,0,0,0,0,0,0,0,0,0,0,0,0,0,0,0,0,0,0,0,0,0,0,0,0,0,0,0,0,0,0,0,0,0,0,0,0,0,0,0,0,0,0,0,0,0,0,0,0,0,0,0,0,0,0,0,0,0,0,0,0,0,0,0,0,0,0,0,0,0,0,0,0,0,0,8,0,0,0,0,0,0,0,0,0,0,0,0,0,0,0,0,8,0,0,0,0,0,0,0,0,0,0,0,0,0,0,0,0,8,0,0,0,0,0,0,0,0,0,0,0,0,0,0,0,0,8,0,0,0,0,0,0,0,0,0,0,0,0,0,0,0,0,8,0,0,0,0,0,0,0,0,0,0,0,0,0,0,0,0,8,0,0,0,0,0,0,0,0,0,0,0,0,0,0,0,0,8,0,0,0,0,0,0,0,0,0,0,0,0,0,0,0,0,0,0,0,0,0,8,0,0,0,0,0,0,0,0,0,0,0,0,0,0,0,0,8,0,0,0,0,0,0,0,0,0,0,0,0,0,0,0,0,8,0,0,0,0,0,0,0,0,0,0,0,0,0,0,0,0,8,0,0,0,0,0,0,0,0,0,0,0,0,0,0,0,0,8,0,0,0,0,0,0,0,0,0,0,0,0,0,0,0,0,8,0,0,0,0,0,0,0,0,0,0,0,0,0,0,0,0,8,0,0,0,0,0,0,0,0,0,0,0,0,0,0,0,0,0,0,0,0,0,8,0,0,0,0,0,0,0,0,0,0,0,0,0,0,0,0,8,0,0,0,0,0,0,0,0,0,0,0,0,0,0,0,0,8,0,0,0,0,0,0,0,0,0,0,0,0,0,0,0,0,8,0,0,0,0,0,0,0,0,0,0,0,0,0,0,0,0,8,0,0,0,0,0,0,0,0,0,0,0,0,0,0,0,0,8,0,0,0,0,0,0,0,0,0,0,0,0,0,0,0,0,8,0,0,0,0,0,0,0,0,0,0,0,0,0,0,0,0,0,0,0,0,0,8,0,0,0,0,0,0,0,0,0,0,0,0,0,0,0,0,8,0,0,0,0,0,0,0,0,0,0,0,0,0,0,0,0,8,0,0,0,0,0,0,0,0,0,0,0,0,0,0,0,0,8,0,0,0,0,0,0,0,0,0,0,0,0,0,0,0,0,8,0,0,0,0,0,0,0,0,0,0,0,0,0,0,0,0,8,0,0,0,0,0,0,0,0,0,0,0,0,0,0,0,0,8,0,0,0,0,0,0,0,0,0,0,0,0,0,0,0,0,0,0,0,0,0,8,0,0,0,0,0,0,0,0,0,0,0,0,0,0,0,0,8,0,0,0,0,0,0,0,0,0,0,0,0,0,0,0,0,8,0,0,0,0,0,0,0,0,0,0,0,0,0,0,0,0,8,0,0,0,0,0,0,0,0,0,0,0,0,0,0,0,0,8,0,0,0,0,0,0,0,0,0,0,0,0,0,0,0,0,8,0,0,0,0,0,0,0,0,0,0,0,0,0,0,0,0,8,0,0,0,0,0,0,0,0,0,0,0,0,0,0,0,0,0,0,0,0,0,8,0,0,0,0,0,0,0,0,0,0,0,0,0,0,0,0,8,0,0,0,0,0,0,0,0,0,0,0,0,0,0,0,0,8,0,0,0,0,0,0,0,0,0,0,0,0,0,0,0,0,8,0,0,0,0,0,0,0,0,0,0,0,0,0,0,0,0,8,0,0,0,0,0,0,0,0,0,0,0,0,0,0,0,0,8,0,0,0,0,0,0,0,0,0,0,0,0,0,0,0,0,8,0,0,0,0,0,0,0,0,0,0,0,0,0,0,0,0,0,0,0,0,0,8,0,0,0,0,0,0,0,0,0,0,0,0,0,0,0,0,8,0,0,0,0,0,0,0,0,0,0,0,0,0,0,0,0,8,0,0,0,0,0,0,0,0,0,0,0,0,0,0,0,0,8,0,0,0,0,0,0,0,0,0,0,0,0,0,0,0,0,8,0,0,0,0,0,0,0,0,0,0,0,0,0,0,0,0,8,0,0,0,0,0,0,0,0,0,0,0,0,0,0,0,0,8,0,0,0,0,0,0,0,0,0,0,0,0,0,0,0,0,0,0,0,0,0,8,0,0,0,0,0,0,0,0,0,0,0,0,0,0,0,0,8,0,0,0,0,0,0,0,0,0,0,0,0,0,0,0,0,8,0,0,0,0,0,0,0,0,0,0,0,0,0,0,0,0,8,0,0,0,0,0,0,0,0,0,0,0,0,0,0,0,0,8,0,0,0,0,0,0,0,0,0,0,0,0,0,0,0,0,8,0,0,0,0,0,0,0,0,0,0,0,0,0,0,0,0,8,0,0,0,0,0,0,0,0,0,0,0,0,0,0,0,0,0,0,0,0,0,8,0,0,0,0,0,0,0,0,0,0,0,0,0,0,0,0,8,0,0,0,0,0,0,0,0,0,0,0,0,0,0,0,0,8,0,0,0,0,0,0,0,0,0,0,0,0,0,0,0,0,8,0,0,0,0,0,0,0,0,0,0,0,0,0,0,0,0,8,0,0,0,0,0,0,0,0,0,0,0,0,0,0,0,0,8,0,0,0,0,0,0,0,0,0,0,0,0,0,0,0,0,8,0,0,0,0,0,0,0,0,0,0,0,0,0,0,0,0,0,0,0,0,0,8,0,0,0,0,0,0,0,0,0,0,0,0,0,0,0,0,8,0,0,0,0,0,0,0,0,0,0,0,0,0,0,0,0,8,0,0,0,0,0,0,0,0,0,0,0,0,0,0,0,0,8,0,0,0,0,0,0,0,0,0,0,0,0,0,0,0,0,8,0,0,0,0,0,0,0,0,0,0,0,0,0,3,3,3,3,3,3,0,0,0,0,0,0,0,0,0,0,0,0,0,0,8,0,0,0,0,0,0,0,0,0,0,0,0,0,0,0,0,0,0,0,0,0,0,0,0,0,0,0,0,0,0,0,0,0,0,0,0,0,0,0,0,0,0,0,0,0,0,0,0,0,0,0,0,0,0,0,0,0,0,0,0,0,0,0,0,0,0,0,0,0,0,0,0,0,0,0,0,0,0,0,0,0,0,0,0,0,0,0,0,0,0,0,0,0,0,0,0,0,0,0,0,0,0,0,0,0,0,0,0,0,0,0,0,0,0,0,0,0,0,0,0,0,0,0,0,0,0,0,0,0,0,0,0,0,0,0,0,0,0,0,0,0,0,0,0,0,0,0,0,0,0,0,0,0,0,0,0,0,0,0,0,0,0,0,0,0,0,0,0,0,0,0,0,0,0,0,0,0,0,0,0,0,0,0,0,0,0,0,0,0,0,0,0,0,0,0,0,0,0,0,0,0,0,0,0,0,0,0,0,0,0,0,0,0,0,0,0,0,0,0,0,0,0,0,0,0,0,0,0,0,0,0,0,0,0,0,0,0,0,0,0,0,0,0,0,0,0,0,0,0,0,0,0,0,0,0,0,0,0,0,0,0,0,0,0,0,0,0,0,0,0,0,0,0,0,0,0,0,0,0,0,0,0,0,0,0,0,0,0,0,0,0,0,0,0,0,0,0,0,0,3,3,3,3,3,3,3,3,3,3,0,0,0,0,0,0,0,0,0,0,0,0,0,0,0,0,0,0,0,0,0,0,0,0,0,0,0,0,0,0,0,0,0,0,0,0,0,0,3,3,3,3,3,3,0,0,0,0,0,0,0,0,0,0,0,0,0,0,0,0,0,0,0,0,0,0,0,0,0,0,0,0,0,0,0,0,0,0,0,0,0,0,0,0,0,0,0,0,0,0,0,0,0,0,0,0,0,0,0,0,0,0,0,0,0,0,0,0,0,0,0,0,0,0,0,0,0,0,0,0,0,0,0,0,0,0,0,0,0,0,0,0,0,0,0,0,0,0,0,0,0,0,0,0,0,0,0,0,0,0,0,0,0,0,0,0,0,0,0,0,0,0,0,0,0,0,0,0,0,0,0,0,0,0,0,0,0,0,0,0,0,0,0,0,0,0,0,0,0,0,0,0,0,0,0,0,0,0,0,0,0,0,0,0,0,0,0,0,0,0,0,0,0,0,0,0,0,0,0,0,0,0,0,0,0,0,0,0,0,0,0,0,0,0,0,0,0,0,0,0,0,0,0,0,0,0,0,0,0,0,0,0,0,0,0,0,0,0,0,0,0,0,0,0,0,0,0,0,0,0,0,0,0,0,0,0,0,0,0,0,0,0,0,0,0,0,0,0,0,0,0,0,0,0,0,0,0,0,0,0,0,0,0,0,0,0,0,0,0,0,0,0,0,0,0,0,0,0,0,0,0,0,0,0,0,0,2,2,2,2,2,2,2,2,2,2,2,2,2,2,2,2,2,2,2,2,2,2,2,2,2,2,2,2,2,2,2,2,2,2,2,2,2,2,2,2,2,2,2,2,2,2,0,0,0,2,2,2,2,2,2,2,2,2,2,2,2,2,2,2,2,2,2,2,2,2,2,2,2,2,2,2,2,2,0,0,0,2,2,2,2,2,2,2,2,2,2,2,2,2,2,2,2,2,2,2,2,2,2,2,2,2,2,2,2,2,2,2,2,2,2,2,2,2,2,2,2,2,2,2,1,1,1,1,1,1,1,1,1,1,1,1,1,1,1,1,1,1,1,1,1,1,1,1,1,1,1,1,1,1,1,1,1,1,1,1,1,1,1,1,1,1,1,1,1,1,0,0,0,1,1,1,1,1,1,1,1,1,1,1,1,1,1,1,1,1,1,1,1,1,1,1,1,1,1,1,1,1,0,0,0,1,1,1,1,1,1,1,1,1,1,1,1,1,1,1,1,1,1,1,1,1,1,1,1,1,1,1,1,1,1,1,1,1,1,1,1,1,1,1,1,1,1,1,1,1,1,1,1,1,1,1,1,1,1,1,1,1,1,1,1,1,1,1,1,1,1,1,1,1,1,1,1,1,1,1,1,1,1,1,1,1,1,1,1,1,1,1,1,1,0,0,0,1,1,1,1,1,1,1,1,1,1,1,1,1,1,1,1,1,1,1,1,1,1,1,1,1,1,1,1,1,0,0,0,1,1,1,1,1,1,1,1,1,1,1,1,1,1,1,1,1,1,1,1,1,1,1,1,1,1,1,1,1,1,1,1,1,1,1,1,1,1,1,1,1,1,1]},{"id":2,"type":"objectgroup","name":"objects","draworder":"topdown","opacity":1,"visible":true,"x":0,"y":0,"objects":[{"id":1,"name":"","type":"info-sign","class":"info-sign","x":80,"y":256,"width":48,"height":64,"rotation":0,"visible":true,"point":false,"properties":[{"name":"textDe","type":"string","value":"Die VAU ist kein Tunnel, sondern ein Raum: drinnen wird im Klartext gearbeitet."},{"name":"textEn","type":"string","value":"The VAU is not a tunnel but a room: inside, work happens in plain text."}]},{"id":2,"name":"","type":"vau-feld","class":"vau-feld","x":384,"y":240,"width":112,"height":80,"rotation":0,"visible":true,"point":false,"properties":[]},{"id":3,"name":"","type":"lauscher","class":"lauscher","x":288,"y":288,"width":16,"height":16,"rotation":0,"visible":true,"point":false,"properties":[{"name":"patrol","type":"float","value":0},{"name":"speed","type":"float","value":20},{"name":"reach","type":"float","value":88},{"name":"spread","type":"float","value":18}]},{"id":4,"name":"","type":"vau-feld","class":"vau-feld","x":592,"y":192,"width":128,"height":80,"rotation":0,"visible":true,"point":false,"properties":[{"name":"ttlMs","type":"float","value":6000}]},{"id":5,"name":"","type":"lauscher","class":"lauscher","x":832,"y":288,"width":16,"height":16,"rotation":0,"visible":true,"point":false,"properties":[{"name":"patrol","type":"float","value":30},{"name":"speed","type":"float","value":30},{"name":"reach","type":"float","value":96},{"name":"spread","type":"float","value":20}]},{"id":6,"name":"","type":"info-sign","class":"info-sign","x":800,"y":256,"width":48,"height":64,"rotation":0,"visible":true,"point":false,"properties":[{"name":"textDe","type":"string","value":"Zwischen den Räumen zählt wieder deine eigene Hülle."},{"name":"textEn","type":"string","value":"Between the rooms your own shell counts again."}]},{"id":7,"name":"","type":"lauscher","class":"lauscher","x":1024,"y":288,"width":16,"height":16,"rotation":0,"visible":true,"point":false,"properties":[{"name":"patrol","type":"float","value":-26},{"name":"speed","type":"float","value":26},{"name":"reach","type":"float","value":88},{"name":"spread","type":"float","value":18}]},{"id":8,"name":"","type":"andock-plattform","class":"andock-plattform","x":1248,"y":297.6,"width":48,"height":6.4,"rotation":0,"visible":true,"point":false,"properties":[]},{"id":9,"name":"","type":"vau-feld","class":"vau-feld","x":1424,"y":144,"width":96,"height":80,"rotation":0,"visible":true,"point":false,"properties":[{"name":"ttlMs","type":"float","value":4500}]},{"id":10,"name":"","type":"kontext-anker","class":"kontext-anker","x":1456,"y":192,"width":16,"height":24,"rotation":0,"visible":true,"point":false,"properties":[]},{"id":11,"name":"","type":"lauscher","class":"lauscher","x":1600,"y":288,"width":16,"height":16,"rotation":0,"visible":true,"point":false,"properties":[{"name":"patrol","type":"float","value":24},{"name":"speed","type":"float","value":34},{"name":"reach","type":"float","value":96},{"name":"spread","type":"float","value":20}]},{"id":12,"name":"","type":"info-sign","class":"info-sign","x":1824,"y":256,"width":48,"height":64,"rotation":0,"visible":true,"point":false,"properties":[{"name":"textDe","type":"string","value":"Drinnen schnell UND unsichtbar. Das kann sonst nichts."},{"name":"textEn","type":"string","value":"Inside fast AND invisible. Nothing else can do that."}]},{"id":13,"name":"","type":"collectible","class":"collectible","x":1442,"y":210,"width":12,"height":12,"rotation":0,"visible":true,"point":false,"properties":[]},{"id":14,"name":"","type":"collectible","class":"collectible","x":610,"y":258,"width":12,"height":12,"rotation":0,"visible":true,"point":false,"properties":[]},{"id":15,"name":"","type":"collectible","class":"collectible","x":690,"y":258,"width":12,"height":12,"rotation":0,"visible":true,"point":false,"properties":[]},{"id":16,"name":"","type":"spawn","class":"spawn","x":64,"y":304,"width":16,"height":16,"rotation":0,"visible":true,"point":false,"properties":[]},{"id":17,"name":"","type":"collectible","class":"collectible","x":130,"y":306,"width":12,"height":12,"rotation":0,"visible":true,"point":false,"properties":[]},{"id":18,"name":"","type":"collectible","class":"collectible","x":194,"y":306,"width":12,"height":12,"rotation":0,"visible":true,"point":false,"properties":[]},{"id":19,"name":"","type":"checkpoint","class":"checkpoint","x":288,"y":296,"width":16,"height":24,"rotation":0,"visible":true,"point":false,"properties":[]},{"id":20,"name":"","type":"collectible","class":"collectible","x":354,"y":306,"width":12,"height":12,"rotation":0,"visible":true,"point":false,"properties":[]},{"id":21,"name":"","type":"collectible","class":"collectible","x":418,"y":306,"width":12,"height":12,"rotation":0,"visible":true,"point":false,"properties":[]},{"id":22,"name":"","type":"checkpoint","class":"checkpoint","x":864,"y":296,"width":16,"height":24,"rotation":0,"visible":true,"point":false,"properties":[]},{"id":23,"name":"","type":"collectible","class":"collectible","x":898,"y":306,"width":12,"height":12,"rotation":0,"visible":true,"point":false,"properties":[]},{"id":24,"name":"","type":"collectible","class":"collectible","x":962,"y":306,"width":12,"height":12,"rotation":0,"visible":true,"point":false,"properties":[]},{"id":25,"name":"","type":"collectible","class":"collectible","x":1090,"y":306,"width":12,"height":12,"rotation":0,"visible":true,"point":false,"properties":[]},{"id":26,"name":"","type":"collectible","class":"collectible","x":1154,"y":306,"width":12,"height":12,"rotation":0,"visible":true,"point":false,"properties":[]},{"id":27,"name":"","type":"checkpoint","class":"checkpoint","x":1216,"y":296,"width":16,"height":24,"rotation":0,"visible":true,"point":false,"properties":[]},{"id":28,"name":"","type":"collectible","class":"collectible","x":1602,"y":306,"width":12,"height":12,"rotation":0,"visible":true,"point":false,"properties":[]},{"id":29,"name":"","type":"collectible","class":"collectible","x":1666,"y":306,"width":12,"height":12,"rotation":0,"visible":true,"point":false,"properties":[]},{"id":30,"name":"","type":"collectible","class":"collectible","x":1730,"y":306,"width":12,"height":12,"rotation":0,"visible":true,"point":false,"properties":[]},{"id":31,"name":"","type":"collectible","class":"collectible","x":1794,"y":306,"width":12,"height":12,"rotation":0,"visible":true,"point":false,"properties":[]},{"id":32,"name":"","type":"door-exit","class":"door-exit","x":1884,"y":288,"width":24,"height":48,"rotation":0,"visible":true,"point":false,"properties":[]}]}]}