{"compressionlevel":-1,"type":"map","version":"1.10","tiledversion":"1.10.2","orientation":"orthogonal","renderorder":"right-down","infinite":false,"width":112,"height":23,"tilewidth":16,"tileheight":16,"nextlayerid":3,"nextobjectid":28,"tilesets":[{"columns":8,"firstgid":1,"image":"../tilesets/ti-tiles.png","imageheight":16,"imagewidth":128,"margin":0,"name":"ti-tiles","spacing":0,"tilecount":8,"tileheight":16,"tilewidth":16}],"layers":[{"id":1,"type":"tilelayer","name":"terrain","width":112,"height":23,"opacity":1,"visible":true,"x":0,"y":0,"data":[0,0,0,0,0,0,0,0,0,0,0,0,0,0,0,0,0,0,0,0,0,0,0,0,0,0,0,0,0,0,0,0,0,0,0,0,0,0,0,0,0,0,0,0,0,0,0,0,0,0,0,0,0,0,0,0,0,0,0,0,0,0,0,0,0,0,0,0,0,0,0,0,0,0,0,0,0,0,0,0,0,0,0,0,0,0,0,0,0,0,0,0,0,0,0,0,0,0,0,0,0,0,0,0,0,0,0,0,0,0,0,0,0,0,0,0,0,0,0,0,0,0,0,0,0,0,0,0,0,0,0,0,0,0,0,0,0,0,0,0,0,0,0,0,0,0,0,0,0,0,0,0,0,0,0,0,0,0,0,0,0,0,0,0,0,0,0,0,0,0,0,0,0,0,0,0,0,0,0,0,0,0,0,0,0,0,0,0,0,0,0,0,0,0,0,0,0,0,0,0,0,0,0,0,0,0,0,0,0,0,0,0,0,0,0,0,0,0,0,0,0,0,0,0,0,0,0,0,0,0,0,0,0,0,0,0,0,0,0,0,0,0,0,0,0,0,0,0,0,0,0,0,0,0,0,0,0,0,0,0,0,0,0,0,0,0,0,0,0,0,0,0,0,0,0,0,0,0,0,0,0,0,0,0,0,0,0,0,0,0,0,0,0,0,0,0,0,0,0,0,0,0,0,0,0,0,0,0,0,0,0,0,0,0,0,0,0,0,0,0,0,0,0,0,0,0,0,0,0,0,0,0,0,0,0,0,0,0,0,0,0,0,0,0,0,0,0,0,0,0,0,0,0,0,0,0,0,0,0,0,0,0,0,0,0,0,0,0,0,0,0,0,0,0,0,0,0,0,0,0,0,0,0,0,0,0,0,0,0,0,0,0,0,0,0,0,0,0,0,0,0,0,0,0,0,0,0,0,0,0,0,0,0,0,0,0,0,0,0,0,0,0,0,0,0,0,0,0,0,0,0,0,0,0,0,0,0,0,0,0,0,0,0,0,0,0,0,0,0,0,0,0,0,0,0,0,0,0,0,0,0,0,0,0,0,0,0,0,0,0,0,0,0,0,0,0,0,0,0,0,0,0,0,0,0,0,0,0,0,0,0,0,0,0,0,0,0,0,0,0,0,0,0,0,0,0,0,0,0,0,0,0,0,0,0,0,0,0,0,0,0,0,0,0,0,0,0,0,0,0,0,0,0,0,0,0,0,0,0,0,0,0,0,0,0,0,0,0,0,0,0,0,0,0,0,0,0,0,0,0,0,0,0,0,0,0,8,0,0,0,0,0,0,0,0,0,0,0,0,0,0,0,0,8,0,0,0,0,0,0,0,0,0,0,0,0,0,0,0,0,8,0,0,0,0,0,0,0,0,0,0,0,0,0,0,0,0,8,0,0,0,0,0,0,0,0,0,0,0,0,0,0,0,0,8,0,0,0,0,0,0,0,0,0,0,0,0,0,0,0,0,8,0,0,0,0,0,0,0,0,0,0,0,0,0,0,0,0,8,0,0,0,0,0,0,0,0,0,8,0,0,0,0,0,0,0,0,0,0,0,0,0,0,0,0,8,0,0,0,0,0,0,0,0,0,0,0,0,0,0,0,0,8,0,0,0,0,0,0,0,0,0,0,0,0,0,0,0,0,8,0,0,0,0,0,0,0,0,0,0,0,0,0,0,0,0,8,0,0,0,0,0,0,0,0,0,0,0,0,0,0,0,0,8,0,0,0,0,0,0,0,0,0,0,0,0,0,0,0,0,8,0,0,0,0,0,0,0,0,0,8,0,0,0,0,0,0,0,0,0,0,0,0,0,0,0,0,8,0,0,0,0,0,0,0,0,0,0,0,0,0,0,0,0,8,0,0,0,0,0,0,0,0,0,0,0,0,0,0,0,0,8,0,0,0,0,0,0,0,0,0,0,0,0,0,0,0,0,8,0,0,0,0,0,0,0,0,0,0,0,0,0,0,0,0,8,0,0,0,0,0,0,0,0,0,0,0,0,0,0,0,0,8,0,0,0,0,0,0,0,0,0,8,0,0,0,0,0,0,0,0,0,0,0,0,0,0,0,0,8,0,0,0,0,0,0,0,0,0,0,0,0,0,0,0,0,8,0,0,0,0,0,0,0,0,0,0,0,0,0,0,0,0,8,0,0,0,0,0,0,0,0,0,0,0,0,0,0,0,0,8,0,0,0,0,0,0,0,0,0,0,0,0,0,0,0,0,8,0,0,0,0,0,0,0,0,0,0,0,0,0,0,0,0,8,0,0,0,0,0,0,0,0,0,8,0,0,0,0,0,0,0,0,0,0,0,0,0,0,0,0,8,0,0,0,0,0,0,0,0,0,0,0,0,0,0,0,0,8,0,0,0,0,0,0,0,0,0,0,0,0,0,0,0,0,8,0,0,0,0,0,0,0,0,0,0,0,0,0,0,0,0,8,0,0,0,0,0,0,0,0,0,0,0,0,0,0,0,0,8,0,0,0,0,0,0,0,0,0,0,0,0,0,0,0,0,8,0,0,0,0,0,0,0,0,0,8,0,0,0,0,0,0,0,0,0,0,0,0,0,0,0,0,8,0,0,0,0,0,0,0,0,0,0,0,0,0,0,0,0,8,0,0,0,0,0,0,0,0,0,0,0,0,0,0,0,0,8,0,0,0,0,0,0,0,0,0,0,0,0,0,0,0,0,8,0,0,0,0,0,0,0,0,0,0,0,0,0,0,0,0,8,0,0,0,0,0,0,0,0,0,0,0,0,0,0,0,0,8,0,0,0,0,0,0,0,0,0,8,0,0,0,0,0,0,0,0,0,0,0,0,0,0,0,0,8,0,0,0,0,0,0,0,0,0,0,0,0,0,0,0,0,8,0,0,0,0,0,0,0,0,0,0,0,0,0,0,0,0,8,0,0,0,0,0,0,0,0,0,0,0,0,0,0,0,0,8,0,0,0,0,0,0,0,0,0,0,0,0,0,0,0,0,8,0,0,0,0,0,0,0,0,0,0,0,0,0,0,0,0,8,0,0,0,0,0,0,0,0,0,8,0,0,0,0,0,0,0,0,0,0,0,0,0,0,0,0,8,0,0,0,0,0,0,0,0,0,0,0,0,0,0,0,0,8,0,0,0,0,0,0,0,0,0,0,0,0,0,0,0,0,8,0,0,0,0,0,0,0,0,0,0,0,0,0,0,0,0,8,0,0,0,0,0,0,0,0,0,0,0,0,0,0,0,0,8,0,0,0,0,0,0,0,0,0,0,0,0,0,0,0,0,8,0,0,0,0,0,0,0,0,0,8,0,0,0,0,0,0,0,0,0,0,0,0,0,0,0,0,8,0,0,0,0,0,0,0,0,0,0,0,0,0,0,0,0,8,0,0,0,0,0,0,0,0,0,0,0,0,0,0,0,0,8,0,0,0,0,0,0,0,0,0,0,0,0,0,0,0,0,8,0,0,0,0,0,0,0,0,0,0,0,0,0,0,0,0,8,0,0,0,0,0,0,0,0,0,0,0,0,0,0,0,0,8,0,0,0,0,0,0,0,0,0,8,0,0,0,0,0,0,0,0,0,0,0,0,0,0,0,0,8,0,0,0,0,0,0,0,0,0,0,0,0,0,0,0,0,8,0,0,0,0,0,0,0,0,0,0,0,0,0,0,0,0,8,0,0,0,0,0,0,0,0,0,0,0,0,0,0,0,0,8,0,0,0,0,0,0,0,0,0,0,0,0,0,0,0,0,8,0,0,0,0,0,0,0,0,0,0,0,0,0,0,0,0,8,0,0,0,0,0,0,0,0,0,0,0,0,0,0,0,0,0,0,0,0,0,0,0,0,0,0,0,0,0,0,0,0,0,0,0,0,0,0,0,0,0,0,0,0,0,0,0,0,0,0,0,0,0,0,0,0,0,0,0,0,0,0,0,0,0,0,0,0,0,0,0,0,0,0,0,0,0,0,0,0,0,0,0,0,0,0,0,0,0,0,0,0,0,0,0,0,0,0,0,0,0,0,0,0,0,0,0,0,0,0,0,0,0,0,0,0,0,0,0,0,0,0,0,0,0,0,0,0,0,0,0,0,0,0,0,0,0,0,0,0,0,0,0,0,0,0,0,0,0,0,0,0,0,0,0,0,0,0,0,0,0,0,0,0,0,0,0,0,0,0,0,0,0,0,0,0,0,0,0,0,0,0,0,0,0,0,0,0,0,0,0,0,0,0,0,0,0,0,0,0,0,0,0,0,0,0,0,0,0,0,0,0,0,0,0,0,0,0,0,0,0,0,0,0,0,0,0,0,0,0,0,0,0,0,0,0,0,0,0,0,0,0,0,0,0,0,0,0,0,0,0,0,0,0,0,0,0,0,0,0,0,0,0,0,0,0,0,0,0,0,0,0,0,0,0,0,0,0,0,0,0,0,0,0,0,0,0,0,0,0,0,0,0,0,0,0,0,0,0,0,0,0,0,0,0,0,0,0,0,0,0,0,0,0,0,3,3,3,3,3,3,0,0,0,0,0,0,0,0,0,0,0,0,0,0,0,0,0,0,0,0,0,0,0,0,0,0,0,0,0,0,0,0,0,0,0,0,0,0,0,0,0,0,0,0,0,0,0,0,0,0,0,0,0,0,0,0,0,0,0,0,0,0,0,0,0,0,0,0,0,0,0,0,0,0,0,0,0,0,0,0,0,0,0,0,0,0,0,0,0,0,0,0,0,0,0,0,0,0,0,0,0,0,0,0,0,0,0,0,0,0,0,0,0,0,0,0,0,0,0,0,0,0,0,0,0,0,0,0,0,0,0,0,0,0,0,0,0,0,0,0,0,0,0,0,0,0,0,0,0,0,0,0,0,0,0,0,0,0,0,0,0,0,0,0,0,0,0,0,0,0,0,0,0,0,0,0,0,0,0,0,0,0,0,0,0,0,0,0,0,0,0,0,0,0,0,0,0,0,0,0,0,0,0,0,0,0,0,0,0,0,0,0,0,0,0,0,0,0,0,0,0,0,0,0,0,0,0,0,0,0,0,0,0,0,0,0,0,0,0,0,0,0,2,2,2,2,2,2,2,2,2,2,2,2,2,2,2,2,2,2,2,2,2,2,2,2,2,2,2,2,2,2,2,2,2,2,2,2,2,2,2,2,2,2,2,2,2,2,2,2,2,2,2,2,2,2,2,2,2,2,2,2,2,2,2,2,2,2,2,2,2,2,2,2,2,2,2,2,2,2,2,2,2,2,2,2,2,2,2,2,2,2,2,2,2,2,2,2,2,2,2,2,2,2,2,2,2,2,2,2,2,2,2,2,1,1,1,1,1,1,1,1,1,1,1,1,1,1,1,1,1,1,1,1,1,1,1,1,1,1,1,1,1,1,1,1,1,1,1,1,1,1,1,1,1,1,1,1,1,1,1,1,1,1,1,1,1,1,1,1,1,1,1,1,1,1,1,1,1,1,1,1,1,1,1,1,1,1,1,1,1,1,1,1,1,1,1,1,1,1,1,1,1,1,1,1,1,1,1,1,1,1,1,1,1,1,1,1,1,1,1,1,1,1,1,1,1,1,1,1,1,1,1,1,1,1,1,1,1,1,1,1,1,1,1,1,1,1,1,1,1,1,1,1,1,1,1,1,1,1,1,1,1,1,1,1,1,1,1,1,1,1,1,1,1,1,1,1,1,1,1,1,1,1,1,1,1,1,1,1,1,1,1,1,1,1,1,1,1,1,1,1,1,1,1,1,1,1,1,1,1,1,1,1,1,1,1,1,1,1,1,1,1,1,1,1,1,1,1,1,1,1,1,1,1,1,1,1]},{"id":2,"type":"objectgroup","name":"objects","draworder":"topdown","opacity":1,"visible":true,"x":0,"y":0,"objects":[{"id":1,"name":"","type":"info-sign","class":"info-sign","x":96,"y":256,"width":48,"height":64,"rotation":0,"visible":true,"point":false,"properties":[{"name":"textDe","type":"string","value":"Der Kontextschluessel gilt nur eine Weile. Danach bist du wieder sichtbar."},{"name":"textEn","type":"string","value":"The context key is valid for a while only. After that you are visible again."}]},{"id":2,"name":"","type":"lauscher","class":"lauscher","x":416,"y":288,"width":16,"height":16,"rotation":0,"visible":true,"point":false,"properties":[{"name":"patrol","type":"float","value":36},{"name":"speed","type":"float","value":24},{"name":"reach","type":"float","value":92},{"name":"spread","type":"float","value":20}]},{"id":3,"name":"","type":"vau-feld","class":"vau-feld","x":640,"y":240,"width":112,"height":80,"rotation":0,"visible":true,"point":false,"properties":[{"name":"ttlMs","type":"float","value":5000}]},{"id":4,"name":"","type":"kontext-anker","class":"kontext-anker","x":688,"y":288,"width":16,"height":24,"rotation":0,"visible":true,"point":false,"properties":[]},{"id":5,"name":"","type":"lauscher","class":"lauscher","x":832,"y":288,"width":16,"height":16,"rotation":0,"visible":true,"point":false,"properties":[{"name":"patrol","type":"float","value":34},{"name":"speed","type":"float","value":26},{"name":"reach","type":"float","value":88},{"name":"spread","type":"float","value":18}]},{"id":6,"name":"","type":"vau-feld","class":"vau-feld","x":1056,"y":240,"width":112,"height":80,"rotation":0,"visible":true,"point":false,"properties":[{"name":"ttlMs","type":"float","value":4500}]},{"id":7,"name":"","type":"kontext-anker","class":"kontext-anker","x":1104,"y":288,"width":16,"height":24,"rotation":0,"visible":true,"point":false,"properties":[]},{"id":8,"name":"","type":"lauscher","class":"lauscher","x":1536,"y":288,"width":16,"height":16,"rotation":0,"visible":true,"point":false,"properties":[{"name":"patrol","type":"float","value":-34},{"name":"speed","type":"float","value":28},{"name":"reach","type":"float","value":92},{"name":"spread","type":"float","value":20}]},{"id":9,"name":"","type":"info-sign","class":"info-sign","x":1696,"y":256,"width":48,"height":64,"rotation":0,"visible":true,"point":false,"properties":[{"name":"textDe","type":"string","value":"Eine abgelaufene Sitzung schuetzt nicht - sie faellt in den Klartext."},{"name":"textEn","type":"string","value":"An expired session does not protect - it falls back into plain text."}]},{"id":10,"name":"","type":"collectible","class":"collectible","x":1442,"y":258,"width":12,"height":12,"rotation":0,"visible":true,"point":false,"properties":[]},{"id":11,"name":"","type":"spawn","class":"spawn","x":64,"y":304,"width":16,"height":16,"rotation":0,"visible":true,"point":false,"properties":[]},{"id":12,"name":"","type":"collectible","class":"collectible","x":146,"y":306,"width":12,"height":12,"rotation":0,"visible":true,"point":false,"properties":[]},{"id":13,"name":"","type":"collectible","class":"collectible","x":210,"y":306,"width":12,"height":12,"rotation":0,"visible":true,"point":false,"properties":[]},{"id":14,"name":"","type":"checkpoint","class":"checkpoint","x":352,"y":296,"width":16,"height":24,"rotation":0,"visible":true,"point":false,"properties":[]},{"id":15,"name":"","type":"collectible","class":"collectible","x":418,"y":306,"width":12,"height":12,"rotation":0,"visible":true,"point":false,"properties":[]},{"id":16,"name":"","type":"collectible","class":"collectible","x":482,"y":306,"width":12,"height":12,"rotation":0,"visible":true,"point":false,"properties":[]},{"id":17,"name":"","type":"collectible","class":"collectible","x":546,"y":306,"width":12,"height":12,"rotation":0,"visible":true,"point":false,"properties":[]},{"id":18,"name":"","type":"checkpoint","class":"checkpoint","x":800,"y":296,"width":16,"height":24,"rotation":0,"visible":true,"point":false,"properties":[]},{"id":19,"name":"","type":"collectible","class":"collectible","x":866,"y":306,"width":12,"height":12,"rotation":0,"visible":true,"point":false,"properties":[]},{"id":20,"name":"","type":"collectible","class":"collectible","x":930,"y":306,"width":12,"height":12,"rotation":0,"visible":true,"point":false,"properties":[]},{"id":21,"name":"","type":"collectible","class":"collectible","x":994,"y":306,"width":12,"height":12,"rotation":0,"visible":true,"point":false,"properties":[]},{"id":22,"name":"","type":"collectible","class":"collectible","x":1218,"y":306,"width":12,"height":12,"rotation":0,"visible":true,"point":false,"properties":[]},{"id":23,"name":"","type":"collectible","class":"collectible","x":1282,"y":306,"width":12,"height":12,"rotation":0,"visible":true,"point":false,"properties":[]},{"id":24,"name":"","type":"checkpoint","class":"checkpoint","x":1344,"y":296,"width":16,"height":24,"rotation":0,"visible":true,"point":false,"properties":[]},{"id":25,"name":"","type":"collectible","class":"collectible","x":1602,"y":306,"width":12,"height":12,"rotation":0,"visible":true,"point":false,"properties":[]},{"id":26,"name":"","type":"collectible","class":"collectible","x":1666,"y":306,"width":12,"height":12,"rotation":0,"visible":true,"point":false,"properties":[]},{"id":27,"name":"","type":"door-exit","class":"door-exit","x":1692,"y":288,"width":24,"height":48,"rotation":0,"visible":true,"point":false,"properties":[]}]}]}