{"compressionlevel":-1,"type":"map","version":"1.10","tiledversion":"1.10.2","orientation":"orthogonal","renderorder":"right-down","infinite":false,"width":100,"height":23,"tilewidth":16,"tileheight":16,"nextlayerid":3,"nextobjectid":21,"properties":[{"name":"_generiert","type":"string","value":"AUS levels-src/99-ki-demo.level.json — NICHT von Hand bearbeiten"}],"tilesets":[{"columns":8,"firstgid":1,"image":"../tilesets/ti-tiles.png","imageheight":16,"imagewidth":128,"margin":0,"name":"ti-tiles","spacing":0,"tilecount":8,"tileheight":16,"tilewidth":16}],"layers":[{"id":1,"type":"tilelayer","name":"terrain","width":100,"height":23,"opacity":1,"visible":true,"x":0,"y":0,"data":[0,0,0,0,0,0,0,0,0,0,0,0,0,0,0,0,0,0,0,0,0,0,0,0,0,0,0,0,0,0,0,0,0,0,0,0,0,0,0,0,0,0,0,0,0,0,0,0,0,0,0,0,0,0,0,0,0,0,0,0,0,0,0,0,0,0,0,0,0,0,0,0,0,0,0,0,0,0,0,0,0,0,0,0,0,0,0,0,0,0,0,0,0,0,0,0,0,0,0,0,0,0,0,0,0,0,0,0,0,0,0,0,0,0,0,0,0,0,0,0,0,0,0,0,0,0,0,0,0,0,0,0,0,0,0,0,0,0,0,0,0,0,0,0,0,0,0,0,0,0,0,0,0,0,0,0,0,0,0,0,0,0,0,0,0,0,0,0,0,0,0,0,0,0,0,0,0,0,0,0,0,0,0,0,0,0,0,0,0,0,0,0,0,0,0,0,0,0,0,0,0,0,0,0,0,0,0,0,0,0,0,0,0,0,0,0,0,0,0,0,0,0,0,0,0,0,0,0,0,0,0,0,0,0,0,0,0,0,0,0,0,0,0,0,0,0,0,0,0,0,0,0,0,0,0,0,0,0,0,0,0,0,0,0,0,0,0,0,0,0,0,0,0,0,0,0,0,0,0,0,0,0,0,0,0,0,0,0,0,0,0,0,0,0,0,0,0,0,0,0,0,0,0,0,0,0,0,0,0,0,0,0,0,0,0,0,0,0,0,0,0,0,0,0,0,0,0,0,0,0,0,0,3,3,3,3,0,0,0,0,0,0,0,0,0,0,0,0,0,0,0,0,0,0,0,0,0,0,0,0,0,0,0,0,0,0,0,0,0,0,0,0,0,0,0,0,0,0,0,0,0,0,0,0,0,0,0,0,0,0,0,0,0,0,0,0,0,0,0,0,0,0,0,0,0,0,0,0,0,0,0,0,0,0,0,0,0,0,0,0,0,0,0,0,0,0,0,0,0,0,0,0,0,0,0,0,0,0,0,0,0,0,0,0,0,0,0,0,0,0,0,0,0,0,0,0,0,0,0,0,0,0,0,0,0,0,0,0,0,0,0,0,0,0,0,0,0,0,0,0,0,0,0,0,0,0,0,0,0,0,0,0,0,0,0,0,0,0,0,0,0,0,0,0,0,0,0,0,0,0,0,0,0,0,0,0,0,0,0,0,0,0,0,0,0,0,0,0,0,0,0,0,0,0,0,0,0,0,0,0,0,0,0,0,0,0,0,0,0,0,0,0,0,0,0,0,0,0,0,0,0,0,0,0,0,0,0,0,0,0,0,0,0,0,0,0,0,0,0,0,0,0,0,0,0,0,0,0,0,0,0,0,0,0,0,0,0,0,0,0,0,0,0,0,0,0,0,0,0,0,0,0,0,0,0,0,0,0,0,0,0,0,0,0,0,0,0,0,0,0,0,0,0,0,0,0,0,0,0,0,0,0,0,0,0,0,0,0,0,0,0,0,0,0,0,0,0,0,0,0,0,0,0,0,0,0,0,0,0,0,0,0,0,0,0,0,0,0,0,0,0,0,0,0,0,0,0,0,0,0,0,0,0,0,0,0,0,0,0,0,0,0,0,0,0,0,0,0,0,0,0,0,0,0,0,0,0,0,0,0,0,0,0,0,0,0,0,0,0,0,0,0,0,0,0,0,0,0,0,0,0,0,0,0,0,0,0,0,0,0,0,0,0,0,0,0,0,0,0,0,0,0,0,0,0,0,0,0,0,0,0,0,0,0,0,0,0,0,0,0,0,0,0,0,0,0,0,0,0,0,0,0,0,0,0,0,0,0,0,0,0,0,0,0,0,0,0,0,0,0,0,0,0,0,0,0,0,0,0,0,0,0,0,0,0,0,0,0,0,0,0,0,0,0,0,0,0,0,0,0,0,0,0,0,0,0,0,0,0,0,0,0,0,0,0,0,0,0,0,0,0,0,0,0,0,0,0,0,0,0,0,0,0,0,0,0,0,0,0,0,0,0,0,0,0,0,0,0,0,0,0,0,0,0,0,0,0,0,0,0,0,0,0,0,0,0,0,0,0,0,0,0,0,0,0,0,0,0,0,0,0,0,0,0,0,0,0,0,0,0,0,0,0,0,0,0,0,0,0,0,0,0,0,0,0,0,0,0,0,0,0,0,0,0,0,0,0,0,0,0,0,0,0,0,0,0,0,0,0,0,0,0,0,0,0,0,0,0,0,0,0,0,0,0,0,0,0,0,0,0,0,0,0,0,0,0,0,0,0,0,0,0,0,0,0,0,0,0,0,0,0,0,0,0,0,0,0,0,0,0,0,0,0,0,0,0,0,0,0,0,0,0,0,0,0,0,0,0,0,0,0,0,0,0,0,0,0,0,0,0,0,0,0,0,0,0,0,0,0,0,0,0,0,0,0,0,0,0,0,0,0,0,0,0,0,0,0,0,0,0,0,0,0,0,0,0,0,0,0,0,0,0,0,0,0,0,0,0,0,0,0,0,0,0,0,0,0,0,0,0,0,0,0,0,0,0,0,0,0,0,0,0,0,0,0,0,0,0,0,0,0,0,0,0,0,0,0,0,0,0,0,0,0,0,0,0,0,0,0,0,0,0,0,0,0,0,0,0,0,0,0,0,0,0,0,0,0,0,0,0,0,0,0,0,0,0,0,0,0,0,0,0,0,0,0,0,0,0,0,0,0,0,0,0,0,0,0,0,0,0,0,0,0,0,0,0,0,0,0,0,0,0,0,0,0,0,0,0,0,0,0,0,0,0,0,0,0,0,0,0,0,0,0,0,0,0,0,0,0,0,0,0,0,0,0,0,0,0,0,0,0,0,0,0,0,0,0,0,0,0,0,0,0,0,0,0,0,0,0,0,0,0,0,0,0,0,0,0,0,0,0,0,0,0,0,0,0,0,0,0,0,0,0,0,0,0,0,0,0,0,0,0,0,0,0,0,0,0,0,0,0,0,0,0,0,0,0,0,0,0,0,0,0,0,0,0,0,0,0,0,0,0,0,0,0,0,0,0,0,0,0,0,0,0,0,0,0,0,0,0,0,0,0,0,0,0,0,0,0,0,0,0,0,0,0,0,0,0,0,0,0,0,0,0,0,0,0,0,0,0,0,0,0,0,0,0,0,0,0,0,0,0,0,0,0,0,0,0,0,0,0,0,0,0,0,0,0,0,0,0,0,0,0,0,0,0,0,0,0,0,0,0,0,0,0,0,0,0,0,0,0,0,0,0,0,0,0,0,0,0,0,0,0,0,0,0,0,0,0,0,0,0,0,0,0,0,0,0,0,0,0,0,0,0,0,0,0,0,0,0,0,0,0,0,0,0,0,0,0,0,0,0,0,0,0,0,0,0,0,0,0,0,0,0,0,0,0,0,0,0,0,0,0,0,0,0,0,0,0,0,0,0,0,0,0,0,0,0,0,0,0,0,0,0,0,0,0,0,0,0,0,0,0,0,0,0,0,0,0,0,0,0,0,0,0,0,0,0,0,0,0,0,0,0,0,0,0,0,0,0,0,0,0,0,0,0,0,0,0,0,0,0,0,0,0,0,0,0,0,0,0,0,0,0,0,0,0,0,0,0,0,0,0,0,0,0,0,0,0,0,2,2,2,2,0,2,2,2,0,2,2,2,0,2,2,2,0,2,2,2,0,2,2,2,0,2,2,2,0,2,2,2,0,2,2,2,0,2,2,2,0,2,2,2,0,2,2,2,0,2,2,2,0,2,2,2,0,2,2,2,0,2,2,2,0,2,2,2,0,2,2,2,0,2,2,2,0,2,2,2,0,2,2,2,0,2,2,2,0,2,2,2,2,2,2,2,2,2,2,2,1,1,1,1,0,1,1,1,0,1,1,1,0,1,1,1,0,1,1,1,0,1,1,1,0,1,1,1,0,1,1,1,0,1,1,1,0,1,1,1,0,1,1,1,0,1,1,1,0,1,1,1,0,1,1,1,0,1,1,1,0,1,1,1,0,1,1,1,0,1,1,1,0,1,1,1,0,1,1,1,0,1,1,1,0,1,1,1,0,1,1,1,1,1,1,1,1,1,1,1,1,1,1,1,0,1,1,1,0,1,1,1,0,1,1,1,0,1,1,1,0,1,1,1,0,1,1,1,0,1,1,1,0,1,1,1,0,1,1,1,0,1,1,1,0,1,1,1,0,1,1,1,0,1,1,1,0,1,1,1,0,1,1,1,0,1,1,1,0,1,1,1,0,1,1,1,0,1,1,1,0,1,1,1,0,1,1,1,0,1,1,1,1,1,1,1,1,1,1,1,1,1,1,1,2,1,1,1,2,1,1,1,2,1,1,1,2,1,1,1,2,1,1,1,2,1,1,1,2,1,1,1,2,1,1,1,2,1,1,1,2,1,1,1,2,1,1,1,2,1,1,1,2,1,1,1,2,1,1,1,2,1,1,1,2,1,1,1,2,1,1,1,2,1,1,1,2,1,1,1,2,1,1,1,2,1,1,1,2,1,1,1,1,1,1,1,1,1,1,1,1,1,1,1,1,1,1,1,1,1,1,1,1,1,1,1,1,1,1,1,1,1,1,1,1,1,1,1,1,1,1,1,1,1,1,1,1,1,1,1,1,1,1,1,1,1,1,1,1,1,1,1,1,1,1,1,1,1,1,1,1,1,1,1,1,1,1,1,1,1,1,1,1,1,1,1,1,1,1,1,1,1,1,1,1,1,1,1,1,1,1,1,1,1,1,1,1,1,1,1,1,1,1,1,1,1,1,1,1,1,1,1,1,1,1,1,1,1,1,1,1,1,1,1,1,1,1,1,1,1,1,1,1,1,1,1,1,1,1,1,1,1,1,1,1,1,1,1,1,1,1,1,1,1,1,1,1,1,1,1,1,1,1,1,1,1,1,1,1,1,1,1,1,1,1,1,1,1,1,1,1,1,1,1,1,1,1,1,1,1,1,1,1,1,1,1,1,1,1,1,1,1,1,1,1,1,1,1,1,1,1,1,1,1,1,1,1,1,1,1,1,1,1,1,1,1,1,1,1,1,1,1,1,1,1,1,1,1,1,1,1,1,1,1,1,1,1,1,1,1,1,1,1,1,1,1,1,1,1,1,1,1,1,1,1,1,1,1,1,1,1,1,1,1,1,1,1,1,1,1,1,1,1,1,1,1,1,1,1,1,1,1,1,1,1,1,1,1,1,1]},{"id":2,"type":"objectgroup","name":"objects","draworder":"topdown","opacity":1,"visible":true,"x":0,"y":0,"objects":[{"id":1,"name":"","type":"spawn","class":"spawn","x":0,"y":240,"width":16,"height":16,"rotation":0,"visible":true,"point":false,"properties":[]},{"id":2,"name":"tor-1","type":"gate","class":"gate","x":800,"y":96,"width":8,"height":64,"rotation":0,"visible":true,"point":false,"properties":[]},{"id":3,"name":"","type":"timing-gate","class":"timing-gate","x":-56,"y":176,"width":128,"height":80,"rotation":0,"visible":true,"point":false,"properties":[{"name":"gate","type":"string","value":"tor-1"}]},{"id":4,"name":"","type":"door-exit","class":"door-exit","x":1564,"y":208,"width":24,"height":48,"rotation":0,"visible":true,"point":false,"properties":[]},{"id":5,"name":"","type":"collectible","class":"collectible","x":514,"y":2,"width":12,"height":12,"rotation":0,"visible":true,"point":false,"properties":[]},{"id":6,"name":"","type":"collectible","class":"collectible","x":898,"y":2,"width":12,"height":12,"rotation":0,"visible":true,"point":false,"properties":[]},{"id":7,"name":"","type":"collectible","class":"collectible","x":322,"y":162,"width":12,"height":12,"rotation":0,"visible":true,"point":false,"properties":[]},{"id":8,"name":"","type":"collectible","class":"collectible","x":1122,"y":162,"width":12,"height":12,"rotation":0,"visible":true,"point":false,"properties":[]},{"id":9,"name":"","type":"collectible","class":"collectible","x":402,"y":178,"width":12,"height":12,"rotation":0,"visible":true,"point":false,"properties":[]},{"id":10,"name":"","type":"collectible","class":"collectible","x":1202,"y":178,"width":12,"height":12,"rotation":0,"visible":true,"point":false,"properties":[]},{"id":11,"name":"","type":"collectible","class":"collectible","x":482,"y":194,"width":12,"height":12,"rotation":0,"visible":true,"point":false,"properties":[]},{"id":12,"name":"","type":"collectible","class":"collectible","x":1282,"y":194,"width":12,"height":12,"rotation":0,"visible":true,"point":false,"properties":[]},{"id":13,"name":"","type":"collectible","class":"collectible","x":562,"y":210,"width":12,"height":12,"rotation":0,"visible":true,"point":false,"properties":[]},{"id":14,"name":"","type":"collectible","class":"collectible","x":1362,"y":210,"width":12,"height":12,"rotation":0,"visible":true,"point":false,"properties":[]},{"id":15,"name":"","type":"collectible","class":"collectible","x":1442,"y":242,"width":12,"height":12,"rotation":0,"visible":true,"point":false,"properties":[]},{"id":16,"name":"","type":"checkpoint","class":"checkpoint","x":1040,"y":232,"width":16,"height":24,"rotation":0,"visible":true,"point":false,"properties":[]},{"id":17,"name":"","type":"checkpoint","class":"checkpoint","x":528,"y":232,"width":16,"height":24,"rotation":0,"visible":true,"point":false,"properties":[]},{"id":18,"name":"","type":"checkpoint","class":"checkpoint","x":1120,"y":232,"width":16,"height":24,"rotation":0,"visible":true,"point":false,"properties":[]},{"id":19,"name":"","type":"deny-enemy","class":"deny-enemy","x":-3.2,"y":132.8,"width":22.4,"height":6.4,"rotation":0,"visible":true,"point":false,"properties":[{"name":"fromRight","type":"bool","value":true},{"name":"reach","type":"float","value":42}]},{"id":20,"name":"","type":"info-sign","class":"info-sign","x":500,"y":240,"width":40,"height":64,"rotation":0,"visible":true,"point":false,"properties":[{"name":"textDe","type":"string","value":"Das Rechenzentrum prüft dein Rezept und speichert es verschlüsselt."}]}]}]}